Icons/Line/si_Settings.svg

<svg width="24" height="24" fill="none" xmlns="http://www.w3.org/2000/svg"><g clip-path="url(#a)" stroke="#000" stroke-width="1.5"><path d="M21 10h-2.29a7.454 7.454 0 0 0-.54-1.32l1.62-1.62c.78-.78.78-2.05 0-2.83-.78-.78-2.05-.78-2.83 0l-1.62 1.62c-.21-.11-.42-.21-.64-.3h-.01c-.22-.09-.44-.17-.67-.24V3c0-1.1-.9-2-2-2s-2 .9-2 2v2.29c-.23.07-.45.15-.67.24h-.01c-.22.09-.43.19-.64.3L7.08 4.21c-.78-.78-2.05-.78-2.83 0-.78.78-.78 2.05 0 2.83l1.62 1.62a7.454 7.454 0 0 0-.54 1.32H3c-1.1 0-2 .9-2 2s.9 2 2 2h2.29c.07.23.15.46.24.68.09.22.19.44.31.65l-1.62 1.62c-.78.78-.78 2.05 0 2.83.78.78 2.05.78 2.83 0l1.62-1.62c.21.11.43.21.65.31.22.09.45.17.68.24v2.29c0 1.1.9 2 2 2s2-.9 2-2v-2.29c.23-.07.46-.15.68-.24.22-.09.44-.19.65-.31l1.62 1.62c.78.78 2.05.78 2.83 0 .78-.78.78-2.05 0-2.83l-1.62-1.62c.11-.21.21-.43.31-.65.09-.22.17-.45.24-.68H21c1.1 0 2-.9 2-2s-.9-2-2-2V10Z" stroke-linecap="round" stroke-linejoin="round"/><path d="M12 16a4 4 0 1 0 0-8 4 4 0 0 0 0 8Z" stroke-miterlimit="10"/></g><defs><clipPath id="a"><path fill="#fff" d="M0 0h24v24H0z"/></clipPath></defs></svg>

<svg width="24" height="24" viewBox="0 0 24 24" fill="none" xmlns="http://www.w3.org/2000/svg">
<g clip-path="url(#clip0_22_109)">
<path d="M21 10H18.71C18.64 9.77 18.56 9.54 18.47 9.32C18.38 9.1 18.28 8.89 18.17 8.68L19.79 7.06C20.57 6.28 20.57 5.01 19.79 4.23C19.01 3.45 17.74 3.45 16.96 4.23L15.34 5.85C15.13 5.74 14.92 5.64 14.7 5.55C14.7 5.55 14.7 5.55 14.69 5.55C14.47 5.46 14.25 5.38 14.02 5.31V3C14.02 1.9 13.12 1 12.02 1C10.92 1 10.02 1.9 10.02 3V5.29C9.79 5.36 9.57 5.44 9.35 5.53C9.35 5.53 9.35 5.53 9.34 5.53C9.12 5.62 8.91 5.72 8.7 5.83L7.08 4.21C6.3 3.43 5.03 3.43 4.25 4.21C3.47 4.99 3.47 6.26 4.25 7.04L5.87 8.66C5.76 8.87 5.66 9.08 5.57 9.3C5.48 9.52 5.4 9.75 5.33 9.98H3C1.9 9.98 1 10.88 1 11.98C1 13.08 1.9 13.98 3 13.98H5.29C5.36 14.21 5.44 14.44 5.53 14.66C5.62 14.88 5.72 15.1 5.84 15.31L4.22 16.93C3.44 17.71 3.44 18.98 4.22 19.76C5 20.54 6.27 20.54 7.05 19.76L8.67 18.14C8.88 18.25 9.1 18.35 9.32 18.45C9.54 18.54 9.77 18.62 10 18.69V20.98C10 22.08 10.9 22.98 12 22.98C13.1 22.98 14 22.08 14 20.98V18.69C14.23 18.62 14.46 18.54 14.68 18.45C14.9 18.36 15.12 18.26 15.33 18.14L16.95 19.76C17.73 20.54 19 20.54 19.78 19.76C20.56 18.98 20.56 17.71 19.78 16.93L18.16 15.31C18.27 15.1 18.37 14.88 18.47 14.66C18.56 14.44 18.64 14.21 18.71 13.98H21C22.1 13.98 23 13.08 23 11.98C23 10.88 22.1 9.98 21 9.98V10Z" stroke="black" stroke-width="1.5" stroke-linecap="round" stroke-linejoin="round"/>
<path d="M12 16C14.2091 16 16 14.2091 16 12C16 9.79086 14.2091 8 12 8C9.79086 8 8 9.79086 8 12C8 14.2091 9.79086 16 12 16Z" stroke="black" stroke-width="1.5" stroke-miterlimit="10"/>
</g>
<defs>
<clipPath id="clip0_22_109">
<rect width="24" height="24" fill="white"/>
</clipPath>
</defs>
</svg>
